assets/img/icons/ui/notice-triangle.svg

<?xml version="1.0" encoding="utf-8"?>
<!-- Generated by IcoMoon.io -->
<!DOCTYPE svg PUBLIC "-//W3C//DTD SVG 1.1//EN" "http://www.w3.org/Graphics/SVG/1.1/DTD/svg11.dtd">
<svg version="1.1" xmlns="http://www.w3.org/2000/svg" xmlns:xlink="http://www.w3.org/1999/xlink" width="32" height="32" viewBox="0 0 32 32">
<path fill="rgb(0, 0, 0)" d="M28.764 30c0.693 0 1.336-0.359 1.701-0.949 0.365-0.588 0.398-1.324 0.088-1.945l-12.762-25.527c-0.34-0.678-1.031-1.106-1.789-1.106s-1.449 0.428-1.789 1.106l-12.766 25.527c-0.31 0.619-0.277 1.356 0.088 1.945 0.363 0.59 1.008 0.949 1.701 0.949h25.527zM3.236 28l12.766-25.527 12.762 25.527h-25.527zM14 11.2c0-0.663 0.537-1.2 1.2-1.2h1.6c0.663 0 1.2 0.537 1.2 1.2v7.6c0 0.663-0.537 1.2-1.2 1.2h-1.6c-0.663 0-1.2-0.537-1.2-1.2v-7.6zM18 24.801c0 0.662-0.537 1.199-1.199 1.199h-1.602c-0.662 0-1.199-0.537-1.199-1.199v-1.602c0-0.662 0.537-1.199 1.199-1.199h1.602c0.662 0 1.199 0.537 1.199 1.199v1.602z"></path>
</svg>

<svg xmlns="http://www.w3.org/2000/svg" width="32" height="32" viewBox="0 0 32 32"><path d="M28.764 30a2 2 0 0 0 1.789-2.894L17.791 1.579a2 2 0 0 0-3.578 0L1.447 27.106a1.997 1.997 0 0 0 .088 1.945c.363.59 1.008.949 1.701.949h25.527zM3.236 28L16.002 2.473 28.764 28H3.237zM14 11.2a1.2 1.2 0 0 1 1.2-1.2h1.6a1.2 1.2 0 0 1 1.2 1.2v7.6a1.2 1.2 0 0 1-1.2 1.2h-1.6a1.2 1.2 0 0 1-1.2-1.2v-7.6zm4 13.601A1.2 1.2 0 0 1 16.801 26h-1.602A1.2 1.2 0 0 1 14 24.801v-1.602A1.2 1.2 0 0 1 15.199 22h1.602A1.2 1.2 0 0 1 18 23.199v1.602z"/></svg>
